icons/signal-wifi-error-fill.svg

<svg viewBox="0 0 24 24" fill="currentColor" xmlns="http://www.w3.org/2000/svg"><path d="M12.0005 3C16.2849 3 20.2196 4.49683 23.3104 6.99607L22.4989 8H18.0005L17.9999 13.571L12.0005 21L0.689941 6.99671C3.78078 4.49709 7.71583 3 12.0005 3ZM22.0005 19V21H20.0005V19H22.0005ZM22.0005 10V17H20.0005V10H22.0005Z"/></svg>

<svg xmlns="http://www.w3.org/2000/svg" viewBox="0 0 24 24">
    <g>
        <path fill="none" d="M0 0H24V24H0z"/>
        <path d="M12 3c4.284 0 8.22 1.497 11.31 3.996L22.498 8H18v5.571L12 21 .69 6.997C3.78 4.497 7.714 3 12 3zm10 16v2h-2v-2h2zm0-9v7h-2v-7h2z"/>
    </g>
</svg>
